img/icon-round-phone.svg

<svg width="40" height="40" viewBox="0 0 40 40" fill="none" xmlns="http://www.w3.org/2000/svg">
<circle cx="20" cy="20" r="20" fill="#F8002D"/>
<g clip-path="url(#clip0)">
<path d="M27.6413 24.6447L25.1703 22.1734C24.6782 21.6833 23.8631 21.6982 23.3538 22.2076L22.1089 23.4522C22.0303 23.4089 21.9489 23.3636 21.8633 23.3156C21.0772 22.88 20.0012 22.283 18.869 21.15C17.7335 20.0145 17.1359 18.9369 16.699 18.1503C16.6529 18.067 16.6087 17.9866 16.5651 17.9103L17.4006 17.076L17.8113 16.6648C18.3214 16.1545 18.3355 15.3397 17.8445 14.8481L15.3735 12.3766C14.8825 11.8857 14.0671 11.9006 13.557 12.4108L12.8606 13.1112L12.8796 13.1301C12.6461 13.4281 12.451 13.7717 12.3058 14.1423C12.1719 14.4951 12.0886 14.8317 12.0505 15.169C11.7242 17.8738 12.9603 20.3459 16.3147 23.7004C20.9516 28.337 24.6884 27.9867 24.8496 27.9696C25.2007 27.9277 25.5371 27.8438 25.8791 27.711C26.2465 27.5675 26.5899 27.3726 26.8877 27.1396L26.9029 27.1531L27.6084 26.4623C28.1174 25.9522 28.1321 25.1371 27.6413 24.6447Z" fill="white"/>
</g>
<defs>
<clipPath id="clip0">
<rect width="16" height="16" fill="white" transform="translate(12 12)"/>
</clipPath>
</defs>
</svg>

<svg width="40" height="40" fill="none" xmlns="http://www.w3.org/2000/svg"><circle cx="20" cy="20" r="20" fill="#F8002D"/><g clip-path="url(#clip0)"><path d="M27.641 24.645l-2.47-2.472c-.493-.49-1.308-.475-1.817.035l-1.245 1.244-.246-.136c-.786-.436-1.862-1.033-2.994-2.166-1.136-1.135-1.733-2.213-2.17-3l-.134-.24.836-.834.41-.411c.51-.51.524-1.325.034-1.817l-2.471-2.471c-.492-.491-1.307-.476-1.817.034l-.696.7.019.02a4.027 4.027 0 0 0-.574 1.011c-.134.353-.217.69-.255 1.027-.327 2.705.91 5.177 4.264 8.531 4.637 4.637 8.373 4.287 8.535 4.27a4.172 4.172 0 0 0 1.03-.259c.367-.143.71-.338 1.008-.571l.015.013.705-.69c.51-.51.524-1.326.033-1.818z" fill="#fff"/></g><defs><clipPath id="clip0"><path fill="#fff" transform="translate(12 12)" d="M0 0h16v16H0z"/></clipPath></defs></svg>
